X: 31787
T: Patrick's Night
R: reel
M: 4/4
K: Gmajor
|:dc|BG G2 AGED|GABd egge|dB B2 gedB|A2 GB AGEG|
DG G2 AGED|GABd egge|dB B2 gedB|AGAB G2:|
|:(3Bcd|g2 fa gedB|GB B2 GABd|g2 fa gedg|eA (3Bcd eaaf|
gbaf g3e|dB B2 gBdB|GA (3Bcd gedB|AGAB G2:|

